communes/2832.svg

<?xml version="1.0" encoding="UTF-8"?>
<svg version="1.1" viewBox="0 0 540 620" xmlns="http://www.w3.org/2000/svg" xmlns:cc="http://creativecommons.org/ns#" xmlns:dc="http://purl.org/dc/elements/1.1/" xmlns:rdf="http://www.w3.org/1999/02/22-rdf-syntax-ns#" xmlns:xlink="http://www.w3.org/1999/xlink">
<metadata>
<rdf:RDF>
<cc:Work rdf:about="">
<dc:format>image/svg+xml</dc:format>
<dc:type rdf:resource="http://purl.org/dc/dcmitype/StillImage"/>
</cc:Work>
</rdf:RDF>
</metadata>
<title>Wappen von Ramlinsburg</title>
<desc>Wappen der Schweizer Gemeinde Ramlinsburg, Kanton Baselland</desc>
<path d="m4.5 4.5h531v345.5a265.5 265.5 0 0 1-531 0z" fill="#e2001a" stroke="#000" stroke-width="9"/>
<path d="m64 64h412v286a206 206 0 0 1-412 0z" fill="#ffd400" stroke="#000" stroke-width="4"/>
<path id="a" d="m65 122a191 191 0 0 1 63 375l-3-3a198 198 0 0 0-60-368zm0 4a198 198 0 0 1 60 368l-2-3a230 230 0 0 0-58-361z" fill="#0056ad" stroke="#000" stroke-width="4"/>
<use transform="matrix(-1,0,0,1,540,0)" xlink:href="#a"/>
</svg>

<?xml version="1.0" encoding="UTF-8" standalone="no"?>
<svg
   xmlns:dc="http://purl.org/dc/elements/1.1/"
   xmlns:cc="http://creativecommons.org/ns#"
   xmlns:rdf="http://www.w3.org/1999/02/22-rdf-syntax-ns#"
   xmlns:svg="http://www.w3.org/2000/svg"
   xmlns="http://www.w3.org/2000/svg"
   xmlns:xlink="http://www.w3.org/1999/xlink"
   xmlns:sodipodi="http://sodipodi.sourceforge.net/DTD/sodipodi-0.dtd"
   xmlns:inkscape="http://www.inkscape.org/namespaces/inkscape"
   version="1.1"
   width="540"
   height="620"
   viewBox="0 0 540 620"
   id="svg13"
   sodipodi:docname="2832.svg">
  <metadata
     id="metadata19">
    <rdf:RDF>
      <cc:Work
         rdf:about="">
        <dc:format>image/svg+xml</dc:format>
        <dc:type
           rdf:resource="http://purl.org/dc/dcmitype/StillImage" />
      </cc:Work>
    </rdf:RDF>
  </metadata>
  <defs
     id="defs17" />
  <sodipodi:namedview
     pagecolor="#ffffff"
     bordercolor="#666666"
     borderopacity="1"
     objecttolerance="10"
     gridtolerance="10"
     guidetolerance="10"
     inkscape:pageopacity="0"
     inkscape:pageshadow="2"
     inkscape:window-width="640"
     inkscape:window-height="480"
     id="namedview15" />
  <title
     id="title2">Wappen von Ramlinsburg</title>
  <desc
     id="desc4">Wappen der Schweizer Gemeinde Ramlinsburg, Kanton Baselland</desc>
  <path
     d="M 4.5,4.5 h 531 V 350 A 265.5 265.5 0 0 1 4.5,350 z"
     stroke="black"
     stroke-width="9"
     fill="#e2001a"
     id="path6" />
  <path
     d="M 64,64 h 412 V 350 A 206 206 0 0 1 64,350 z"
     stroke="black"
     stroke-width="4"
     fill="#ffd400"
     id="path8" />
  <path
     d="M 65,122 A 191 191 0 0 1 128,497 L 125,494 A 198 198 0 0 0 65,126 z m 0,4 A 198 198 0 0 1 125,494 L 123,491 A 230 230 0 0 0 65,130 z"
     id="sichel"
     stroke="black"
     stroke-width="4"
     fill="#0056ad" />
  <use
     xlink:href="#sichel"
     transform="matrix(-1,0,0,1,540,0)"
     id="use11" />
</svg>
